assets/airplane.svg

<svg width="214" height="215" viewBox="0 0 214 215" fill="none" xmlns="http://www.w3.org/2000/svg">
<rect y="0.723633" width="214" height="214" rx="16" fill="#DFE1F1"/>
<g clip-path="url(#clip0_607_244)">
<path d="M125.667 116.789C125.523 116.934 125.351 117.049 125.163 117.128C124.974 117.206 124.772 117.247 124.567 117.247C124.363 117.247 124.16 117.206 123.972 117.128C123.783 117.049 123.611 116.934 123.467 116.789L121.268 114.59C121.123 114.446 121.008 114.274 120.929 114.086C120.851 113.897 120.81 113.694 120.81 113.49C120.81 113.286 120.851 113.083 120.929 112.894C121.008 112.706 121.123 112.534 121.268 112.39L125.667 107.991C125.811 107.847 125.983 107.732 126.171 107.654C126.36 107.575 126.562 107.535 126.767 107.535C126.971 107.535 127.173 107.575 127.362 107.654C127.551 107.732 127.722 107.847 127.866 107.991L130.066 110.191C130.211 110.335 130.326 110.506 130.404 110.695C130.483 110.884 130.523 111.086 130.523 111.29C130.523 111.495 130.483 111.697 130.404 111.886C130.326 112.075 130.211 112.246 130.066 112.39L125.667 116.789ZM102.334 93.456C102.189 93.6009 102.018 93.716 101.829 93.7945C101.641 93.873 101.438 93.9134 101.234 93.9134C101.029 93.9134 100.827 93.873 100.638 93.7945C100.449 93.716 100.278 93.6009 100.134 93.456L97.9344 91.2564C97.7895 91.1123 97.6745 90.9409 97.596 90.7522C97.5175 90.5634 97.4771 90.3611 97.4771 90.1566C97.4771 89.9522 97.5175 89.7498 97.596 89.5611C97.6745 89.3724 97.7895 89.201 97.9344 89.0569L102.334 84.6578C102.478 84.5132 102.649 84.3985 102.838 84.3202C103.027 84.2419 103.229 84.2017 103.433 84.2017C103.638 84.2017 103.84 84.2419 104.029 84.3202C104.217 84.3985 104.389 84.5132 104.533 84.6578L106.733 86.8573C106.878 87.0014 106.993 87.1728 107.071 87.3615C107.15 87.5503 107.19 87.7527 107.19 87.9571C107.19 88.1615 107.15 88.3639 107.071 88.5526C106.993 88.7414 106.878 88.9127 106.733 89.0569L102.334 93.456Z" fill="#66757F"/>
<path d="M82.111 113.946C85.2221 113.946 99.2221 115.501 99.2221 115.501C99.2221 115.501 100.778 129.501 100.778 132.613C100.778 135.724 97.6666 135.724 96.111 134.168C94.5555 132.613 89.8888 124.835 89.8888 124.835C89.8888 124.835 82.111 120.168 80.5555 118.613C78.9999 117.057 78.9999 113.946 82.111 113.946ZM85.2221 89.1177C89.8888 89.057 124.111 90.6126 124.111 90.6126C124.111 90.6126 125.548 124.835 125.607 129.501C125.667 134.168 121.309 135.727 119.6 129.503C117.89 123.279 111.667 103.057 111.667 103.057C111.667 103.057 89.9588 96.1861 85.2144 95.1206C78.9999 93.7237 80.5539 89.1768 85.2221 89.1177Z" fill="#55ACEE"/>
<path d="M121 84.3903C124.111 81.2792 131.889 79.7236 133.444 81.2792C135 82.8348 133.444 90.6125 130.333 93.7236C127.222 96.8348 100.778 121.724 100.778 121.724C100.778 121.724 90.6665 128.724 88.3331 126.39C85.9998 124.057 92.9998 113.946 92.9998 113.946C92.9998 113.946 117.889 87.5014 121 84.3903Z" fill="#CCD6DD"/>
<path d="M100.778 113.946C100.778 113.946 101.555 114.724 94.5554 121.724C87.5554 128.724 86.7777 127.946 86.7777 127.946C86.7777 127.946 85.9999 127.168 92.9999 120.168C99.9999 113.168 100.778 113.946 100.778 113.946ZM124.111 85.9459C125.349 85.9459 126.536 86.4376 127.411 87.3128C128.286 88.1879 128.778 89.3749 128.778 90.6126H130.03C130.207 90.1226 130.333 89.6093 130.333 89.057C130.333 87.8194 129.842 86.6324 128.966 85.7572C128.091 84.882 126.904 84.3904 125.667 84.3904C125.114 84.3904 124.601 84.5164 124.111 84.6937V85.9459Z" fill="#66757F"/>
</g>
<defs>
<clipPath id="clip0_607_244">
<rect width="56" height="56" fill="white" transform="translate(79 79.7236)"/>
</clipPath>
</defs>
</svg>

<svg xmlns="http://www.w3.org/2000/svg" width="214" height="215" fill="none"><rect width="214" height="214" y=".724" fill="#DFE1F1" rx="16"/><g clip-path="url(#a)"><path fill="#66757F" d="M125.667 116.789a1.561 1.561 0 0 1-1.695.339 1.559 1.559 0 0 1-.505-.339l-2.199-2.199a1.565 1.565 0 0 1-.339-.504 1.565 1.565 0 0 1 0-1.192c.079-.188.194-.36.339-.504l4.399-4.399a1.56 1.56 0 0 1 1.695-.337c.189.078.36.193.504.337l2.2 2.2a1.541 1.541 0 0 1 .338 1.695c-.078.189-.193.36-.338.504l-4.399 4.399Zm-23.333-23.333a1.562 1.562 0 0 1-1.1.457 1.552 1.552 0 0 1-1.1-.457l-2.2-2.2a1.552 1.552 0 0 1 0-2.2l4.4-4.398a1.546 1.546 0 0 1 1.099-.456 1.555 1.555 0 0 1 1.1.456l2.2 2.2a1.541 1.541 0 0 1 .457 1.1 1.541 1.541 0 0 1-.457 1.099l-4.399 4.399Z"/><path fill="#55ACEE" d="M82.111 113.946c3.111 0 17.111 1.555 17.111 1.555s1.556 14 1.556 17.112c0 3.111-3.111 3.111-4.667 1.555-1.556-1.555-6.222-9.333-6.222-9.333s-7.778-4.667-9.334-6.222c-1.555-1.556-1.555-4.667 1.556-4.667Zm3.111-24.828c4.667-.061 38.889 1.495 38.889 1.495s1.437 34.222 1.496 38.888c.06 4.667-4.298 6.226-6.007.002-1.71-6.224-7.933-26.446-7.933-26.446s-21.708-6.87-26.453-7.936c-6.214-1.397-4.66-5.944.008-6.003Z"/><path fill="#CCD6DD" d="M121 84.39c3.111-3.11 10.889-4.666 12.444-3.11 1.556 1.555 0 9.332-3.111 12.444-3.111 3.11-29.555 28-29.555 28s-10.112 7-12.445 4.666C86 124.057 93 113.946 93 113.946s24.889-26.445 28-29.556Z"/><path fill="#66757F" d="M100.778 113.946s.777.778-6.223 7.778-7.777 6.222-7.777 6.222-.778-.778 6.222-7.778 7.778-6.222 7.778-6.222Zm23.333-28a4.666 4.666 0 0 1 4.667 4.667h1.252c.177-.49.303-1.004.303-1.556a4.663 4.663 0 0 0-4.666-4.667c-.553 0-1.066.126-1.556.304v1.252Z"/></g><defs><clipPath id="a"><path fill="#fff" d="M79 79.724h56v56H79z"/></clipPath></defs></svg>
